X:1
T:In Die Tribulationis
T:Giovanni Croce
T:In Die Tribulationis
T:Copyright © 2014 by CPDL.  This edition can be fully distributed, duplicated, performed, and recorded 
T:Copyright © 2014 by CPDL.  This edition can be fully distributed, duplicated, performed, and recorded 
T:Copyright © 2014 by CPDL.  This edition can be fully distributed, duplicated, performed, and recorded 
T:Copyright © 2014 by CPDL.  This edition can be fully distributed, duplicated, performed, and recorded 
T:Copyright © 2014 by CPDL.  This edition can be fully distributed, duplicated, performed, and recorded 
C:Giovanni Croce
Z:Copyright © 2014 by CPDL.  This edition can be fully distributed, duplicated, performed, and recorded
%%score [ 1 2 3 4 ]
L:1/8
Q:1/2=88
M:4/2
K:C
V:1 treble nm="Soprano" snm="S."
V:2 treble nm="Alto" snm="A."
V:3 treble-8 transpose=-12 nm="Tenor" snm="T."
V:4 bass nm="Bass" snm="B."
V:1
"^In the day of my distressI called to you becauseyou heard me and judged my cause, and redeemed me, O Lord my God." z16 | %1
w: |
 z16 | z16 | z16 | z16 | E8 E4 E4 | F6 E2 D4 ^C4 | D4 E4 (F4 E2 D2 | F4) E4 z8 | z4 A8 ^G4 | %10
w: ||||In di- e|tri- bu- la- ti-|o- nis me- * *|* ae,|tri- bu-|
 A4 E4 =G4 G4 | (C6 D2 E8) | E16 | z4 E4 A8 | ^G4 (A6 =G2 F4) | E4 G6 F2 E4- | E4 D4 E8- | E16 | %18
w: la- ti- o- nis|me- * *|ae|cla- ma-|vi ad _ _|te, ad _ _|_ _ te|_|
 z4 (A8 ^G2 ^F2 | ^G4) A4 =F8 | E8 E4 E4- | E4 D4 E8 | z4 (F8 E4-) | E4 D4 E8 | E8 z4 E4- | %25
w: quo- * *|* ni- am|e- xau- di-|* sti me|ju- *|* di- ca-|sti cau-|
 E4 E4 E8 | E4 F8 D4 | E8 E4 E4 | A6 G2 F4 F4 | E4 G4 G6 G2 | E4 G4 G8 | G6 G2 G4 A4 | %32
w: * sam me-|am, cau- sam|me- am et|li- be- ra- sti|me, et li- be-|ra- sti me|Do- mi- ne De-|
 E4 E6 E2 D4 | E8 E4 A4- | A2 A2 ^G4 A4 E4 | z4 E6 E2 A4 | ^G4 A4 E8- |"^rit." E16 | E16 |] %39
w: us Do- mi- ne|De- us, Do-|* mi- ne De- us,|Do- mi- ne|De- us me-||us.|
V:2
 B,8 B,4 B,4 | C6 B,2 A,8- | A,4 A,4 A,2 G,2 A,2 B,2 | C4 B,2 A,2 B,4 A,4- | (A,4 ^G,2 ^F,2 G,8) | %5
w: In di- e|tri- bu- la-|* ti- o- * * *|* * * nis me-||
 A,8 z8 | z16 | z16 | z8 z4 E4- | E4 D4 E8- | E4 C4 D4 E4 | (A,8 B,8) | A,8 z4 A,4 | E8 E4 D4 | %14
w: ae|||tri-|* bu- la-|* ti- o- nis|me- *|ae cla-|ma- vi ad|
 E8 z4 D4 | G4 E6 D2 C4- | C4 B,2 A,2 C4 B,4 | A,4 (C8 B,2 A,2 | B,4) A,4 E4 E4- | E4 E4 (D6 C2 | %20
w: te cla-|ma- vi _ _|_ _ _ _ ad|te quo- * *|* ni- am e-|* xau- di- *|
 B,4) B,4 A,4 C4- | C4 A,4 C4 B,4 | A,6 G,2 A,2 B,2 C4- | C4 B,2 A,2 B,8 | z4 A,8 =G,4 | (C8 B,8) | %26
w: * sti me, e-|* xau- di- sti|me _ _ _ _|_ _ _ _|ju- di-|ca- *|
 C4 D8 A,4 | (C4 B,4) A,4 C4 | F6 C2 C4 D4 | G,4 E4 D6 E2 | C4 D4 E4 E4- | E2 E2 D4 (E6 D2 | %32
w: sti cau- sam|me- * am et|li- be- ra- sti|me, et li- be-|ra- sti me Do-|* mi- ne De- *|
 C4) B,4 (C4 B,2 A,2 | C4 B,4) A,8 | z4 B,4 C4 A,4 | (E6 D2 C4) E4 | E6 D2 C4 B,4 | A,6 B,2 C8 | %38
w: * us me- * *|* * us,|Do- mi- ne|De- * * us|me- * * *||
 B,16 |] %39
w: us.|
V:3
 z16 | z16 | z16 | z16 | B8 B4 B4 | c6 B2 A4 ^G4 | (A6 =G2 F4) E4 | (F4 G4 A8) | A4 A8 ^G4 | %9
w: ||||In di- e|tri- bu- la- ti-|o- * * nis|me- * *|ae, tri- bu-|
 A6 B2 c4 B4 | c4 A4 B4 c4- | c2 B2 A8 ^G4 | A4 A4 c8 | B4 (c6 B2 A4) | B4 c4 A4 A4 | c8 G8 | %16
w: la- ti- o- nis|me- * * *||ae cla- ma-|vi ad _ _|te cla- ma- vi|ad te,|
 (A12 ^G4 | A8) E8 | z4 (c8 B2 A2 | B4) A4 A4 A4- | A4 ^G4 (A6 =G2 | F4) F4 E8 | z16 | z4 A8 =G4 | %24
w: ad _|_ te|quo- * *|* ni- am e-|* xau- di- *|* sti me||ju- di-|
 (c8 B8) | A8 (E8 | A8) A4 A4- | (A2 ^G^F G4) A4 A4 | c6 c2 A4 B4 | c4 c4 B6 c2 | c4 B4 c4 c4- | %31
w: ca- *|sti cau-|* sam me-|* * * * am, et|li- be- ra- sti|me, et li- be-|ra- sti me Do-|
 c2 c2 B4 (c6 B2 | A4) E4 z4 A4- | A2 A2 =G4 c4 c4 | B8 A4 c4- | c2 c2 B4 (A2 B2 c2 A2 | %36
w: * mi- ne De- *|* us Do-|* mi- ne De- us|me- us Do-|* mi- ne De- * * *|
 B4) c4 A4 B4 | c6 B2 A2 E2 A4- | A4 ^G2 ^F2 G8 |] %39
w: * us me- *||* * * us.|
V:4
 z8 E,8 | E,4 E,4 F,6 E,2 | D,4 ^C,4 D,2 E,2 F,2 G,2 | A,4 G,2 F,2 G,4 F,4 | E,16 | A,,8 z8 | z16 | %7
w: In|di- e tri- bu-|la- ti- o- * * *|* * * * nis|me-|ae||
 z8 z4 D,4- | D,4 ^C,4 D,4 E,4 | F,8 E,8 | A,8 G,4 E,4 | F,8 E,8 | A,,4 A,,4 A,8 | %13
w: tri-|* bu- la- ti-|o- nis|me- * *||ae cla- ma-|
 ^G,4 (A,6 =G,2 F,4) | E,4 A,,4 D,8 | C,12 C,4 | F,8 E,4 E,4 | A,,4 (A,8 ^G,2 ^F,2 | %18
w: vi ad _ _|te cla- ma-|vi, cla-|ma- vi ad|te quo- * *|
 ^G,4) A,4 E,4 E,4- | E,4 ^C,4 D,8 | E,8 A,,8 | z16 | z4 D,8 =C,4 | (F,8 E,8) | A,,8 E,8 | %25
w: * ni- am e-|* xau- di-|sti me||ju- di-|ca- *|sti cau-|
 A,,4 (A,8 ^G,4) | A,4 D,8 F,4 | E,8 A,,4 A,4 | F,6 E,2 F,4 D,4 | C,4 C,4 G,6 E,2 | A,4 G,4 C,8 | %31
w: sam me- *|am, cau- sam|me- am et|li- be- ra- sti|me, et li- be-|ra- sti me|
 z8 z4 A,4- | A,2 A,2 ^G,4 A,4 F,4 | E,8 A,,8 | E,6 E,2 A,,4 A,4- | A,2 A,2 ^G,4 A,8 | %36
w: Do-|* mi- ne De- us|me- us|Do- mi- ne Do-|* mi- ne De-|
 E,4 A,,8 ^G,,4 | A,,16 | E,16 |] %39
w: us, De- us|me-|us.|

